Newaita-dark/apps/22/com.github.artemanufrij.findfileconflicts.svg

<svg height="22" viewBox="0 0 22 22" width="22" xmlns="http://www.w3.org/2000/svg" xmlns:xlink="http://www.w3.org/1999/xlink"><linearGradient id="a"><stop offset="0" stop-opacity=".313726"/><stop offset=".222222" stop-opacity=".27451"/><stop offset="1" stop-opacity="0"/></linearGradient><radialGradient id="b" cx="450.908936" cy="189.579361" gradientTransform="matrix(.00000012 -.0537161 -.0966889 -.00000007 30.609667 43.721789)" gradientUnits="userSpaceOnUse" r="21.166656" xlink:href="#a"/><radialGradient id="c" cx="450.908936" cy="189.579361" gradientTransform="matrix(-.00000012 .0537161 .0966889 .00000007 -8.779457 -5.175144)" gradientUnits="userSpaceOnUse" r="21.166656" xlink:href="#a"/><radialGradient id="d" cx="450.908936" cy="189.579361" gradientTransform="matrix(-.00000012 -.0537161 .0966889 -.00000007 -8.779457 43.721789)" gradientUnits="userSpaceOnUse" r="21.166656" xlink:href="#a"/><radialGradient id="e" cx="450.908936" cy="189.579361" gradientTransform="matrix(.00000012 .0537161 -.0966889 .00000007 30.609666 -5.175144)" gradientUnits="userSpaceOnUse" r="21.166656" xlink:href="#a"/><linearGradient id="f" gradientTransform="matrix(.00918504 0 0 .0429729 8.569953 9.239164)" gradientUnits="userSpaceOnUse" x1="255.323059" x2="255.323044" y1="233.5" y2="254.666656"><stop offset="0" stop-opacity=".27451"/><stop offset="1" stop-opacity="0"/></linearGradient><linearGradient id="g" gradientUnits="userSpaceOnUse" x1="10.9151166" x2="10.9151166" y1="1.99106697081" y2="19.27333515"><stop offset="0" stop-color="#ff8a65"/><stop offset="1" stop-color="#ff7043"/></linearGradient><linearGradient id="h" gradientTransform="matrix(.0212912 .0368775 -.0368775 .0212912 6.717209 .564349)" gradientUnits="userSpaceOnUse" x1="344.628418" x2="163.846085" y1="123.740433" y2="-57.04192"><stop offset="0" stop-color="#ffa726"/><stop offset="1" stop-color="#ffb74d"/></linearGradient><linearGradient id="i" gradientUnits="userSpaceOnUse" x1="10.9151166" x2="10.9151166" y1="19.27333515" y2="1.99106697081"><stop offset="0" stop-color="#424242"/><stop offset="1" stop-color="#616161"/></linearGradient><linearGradient id="j" gradientTransform="matrix(-.0429729 0 0 .0429729 21.830208 9.239163)" gradientUnits="userSpaceOnUse" x1="254" x2="254" y1="233.5" y2="-168.666672"><stop offset="0" stop-color="#bdbdbd"/><stop offset="1" stop-color="#e0e0e0"/></linearGradient><path d="m12.507812 19.273438h1.816407v-.910157h-1.816407zm0 0" fill="url(#b)"/><path d="m9.324219 19.273438h-1.820313v.910156h1.820313zm0 0" fill="url(#c)"/><path d="m9.324219 19.273438h-1.820313v-.910157h1.820313zm0 0" fill="url(#d)"/><path d="m12.507812 19.273438h1.816407v.910156h-1.816407zm0 0" fill="url(#e)"/><path d="m9.324219 19.046875h3.183593v1.136719h-3.183593zm0 0" fill="url(#f)"/><path d="m10.914062 1.992188c4.773438 0 8.640626 3.867187 8.640626 8.640624 0 4.773438-3.867188 8.640626-8.640626 8.640626-4.769531 0-8.640624-3.867188-8.640624-8.640626 0-4.773437 3.871093-8.640624 8.640624-8.640624zm0 0" fill="url(#g)"/><path d="m10.914062 19.273438c-4.785156 0-8.640624-3.855469-8.640624-8.640626 0-.027343 0-.058593 0-.085937.046874 4.75 3.882812 8.558594 8.640624 8.558594 4.761719 0 8.597657-3.808594 8.640626-8.558594v.085937c0 4.785157-3.851563 8.640626-8.640626 8.640626zm0 0" fill-opacity=".196078"/><path d="m10.914062 1.992188c-4.785156 0-8.640624 3.851562-8.640624 8.640624v.085938c.046874-4.75 3.882812-8.558594 8.640624-8.558594 4.761719 0 8.597657 3.808594 8.640626 8.558594 0-.03125 0-.058594 0-.085938 0-4.789062-3.851563-8.640624-8.640626-8.640624zm0 0" fill="#fff" fill-opacity=".392157"/><path d="m7.027344 12.875c-.167969-.292969 1.511718-1.40625 1.441406-1.738281s-2.058594-.664063-2.023438-1c.035157-.335938 2.050782-.25 2.1875-.558594.136719-.308594-1.277343-1.746094-1.050781-2 .226563-.25 1.804688 1.003906 2.097657.835937.292968-.167968-.003907-2.164062.328124-2.234374.332032-.070313.871094 1.871093 1.207032 1.90625.335937.039062 1.265625-1.75 1.578125-1.613282.308593.136719-.398438 2.027344-.148438 2.253906.253907.226563 2.058594-.675781 2.226563-.382812.167968.296875-1.511719 1.40625-1.441406 1.738281.070312.332031 2.058593.664063 2.023437 1-.035156.339844-2.050781.25-2.1875.558594s1.277344 1.75 1.050781 2c-.226562.25-1.804687-1.003906-2.097656-.832031-.292969.167968.003906 2.160156-.328125 2.230468-.332031.070313-.871094-1.871093-1.207031-1.90625-.335938-.035156-1.265625 1.753907-1.578125 1.613282-.308594-.136719.398437-2.023438.148437-2.25-.253906-.226563-2.058594.671875-2.226562.378906zm0 0" fill="url(#h)"/><path d="m10.914062 1.925781c-4.820312 0-8.703124 3.882813-8.703124 8.707031 0 4.820313 3.882812 8.703126 8.703124 8.703126 4.824219 0 8.707032-3.882813 8.707032-8.703126 0-4.824218-3.882813-8.707031-8.707032-8.707031zm0 .128907c4.753907 0 8.578126 3.824218 8.578126 8.578124 0 4.75-3.824219 8.574219-8.578126 8.574219-4.75 0-8.574218-3.824219-8.574218-8.574219 0-4.753906 3.824218-8.578124 8.574218-8.578124zm0 0" fill="#212121"/><path d="m6.355469 6.539062c-.246094.007813-.441407.207032-.441407.453126v1.367187h-3.8125c-.183593.726563-.28125 1.488281-.28125 2.273437 0 .785157.097657 1.546876.28125 2.273438h3.8125v1.363281c0 .394531.460938.601563.753907.339844l4.09375-3.636719c.203125-.183594.203125-.5 0-.679687l-4.09375-3.636719c-.078125-.074219-.183594-.113281-.289063-.117188-.007812 0-.015625 0-.023437 0zm0 0" fill="url(#i)"/><path d="m15.476562 6.539062c-.007812 0-.015624 0-.023437 0-.109375.003907-.210937.042969-.289063.117188l-4.09375 3.636719c-.203124.179687-.203124.496093 0 .679687l4.09375 3.636719c.289063.261719.753907.054687.753907-.339844v-1.363281h3.808593c.1875-.726562.285157-1.488281.285157-2.273438 0-.785156-.097657-1.546874-.285157-2.273437h-3.808593v-1.367187c0-.246094-.199219-.445313-.441407-.453126zm0 0" fill="url(#j)"/><path d="m6.355469 6.539062c-.246094.007813-.441407.207032-.441407.453126v.339843c0-.246093.195313-.445312.441407-.453125h.023437c.105469.003906.210938.042969.289063.117188l4.09375 3.636718c.054687.046876.09375.105469.117187.167969.070313-.171875.03125-.375-.117187-.507812l-4.09375-3.636719c-.078125-.074219-.183594-.113281-.289063-.117188-.007812 0-.015625 0-.023437 0zm-4.253907 1.820313c-.183593.726563-.28125 1.488281-.28125 2.273437v.167969c.011719-.722656.109376-1.429687.28125-2.101562h3.8125v-.339844zm0 0" fill="#efefef" fill-opacity=".313726"/><path d="m15.476562 6.539062c-.007812 0-.015624 0-.023437 0-.109375.003907-.210937.042969-.289063.117188l-4.09375 3.636719c-.148437.132812-.191406.335937-.121093.507812.027343-.0625.066406-.121093.121093-.167969l4.09375-3.636718c.078126-.074219.179688-.113282.289063-.117188h.023437c.242188.007813.441407.207032.441407.453125v-.339843c0-.246094-.199219-.445313-.441407-.453126zm.441407 1.820313v.339844h3.808593c.171876.671875.269532 1.378906.28125 2.101562.003907-.054687.003907-.113281.003907-.167969 0-.785156-.097657-1.546874-.285157-2.273437zm0 0" fill="#efefef"/><path d="m10.851562 10.859375c-.023437.042969-.054687.078125-.089843.113281l-4.09375 3.636719c-.292969.261719-.753907.054687-.753907-.339844v.457031c0 .390626.460938.597657.753907.339844l4.09375-3.640625c.164062-.144531.195312-.382812.089843-.566406zm-8.277343 2.046875c.042969.152344.085937.304688.136719.453125h3.203124v-.453125zm0 0" fill-opacity=".235294"/><path d="m10.976562 10.859375c-.105468.183594-.074218.421875.09375.566406l4.09375 3.640625c.289063.257813.753907.050782.753907-.339844v-.457031c0 .394531-.464844.601563-.753907.339844l-4.09375-3.636719c-.039062-.035156-.070312-.070312-.09375-.113281zm4.941407 2.046875v.453125h3.203125c.046875-.148437.09375-.300781.136718-.453125zm0 0" fill-opacity=".235294"/><g fill="none" stroke="#212121" stroke-linecap="round" stroke-linejoin="round" stroke-opacity=".954839"><path d="m558.973135 575.120485c-21.644319.687121-38.82235 18.208713-38.82235 39.853032v120.246219h-335.315169c-16.14735 63.902276-24.736365 130.896597-24.736365 199.952283 0 69.055685 8.589015 136.050007 24.736365 199.952283h335.315169v119.902658c0 34.699623 40.540154 52.908336 66.3072 29.889774l360.051534-319.854941c17.865153-16.147349 17.865153-43.97576 0-59.779548l-360.051534-319.854941c-6.871212-6.527652-16.147349-9.963259-25.423486-10.306819-.687121 0-1.374242 0-2.061364 0zm0 0" stroke-width="11.338583" transform="scale(.0113699)"/><path d="m360.147426-62.832713c5.635825.181801 10.271746 4.817722 10.271746 10.544448v31.815143h88.6279c4.36322 16.907476 6.63573 34.633057 6.63573 52.904039s-2.27251 35.996562-6.63573 52.904039h-88.6279v31.724243c0 9.180941-10.817149 13.998663-17.543779 7.908336l-95.26363-84.628282c-4.726821-4.27232-4.726821-11.635253 0-15.816672l95.26363-84.628282c1.818008-1.727108 4.181419-2.636112 6.72663-2.727012zm0 0" stroke-width="3" transform="matrix(.0429729 0 0 .0429729 0 9.239163)"/></g></svg>

<?xml version="1.0" encoding="UTF-8"?>
<svg xmlns="http://www.w3.org/2000/svg" xmlns:xlink="http://www.w3.org/1999/xlink" width="22px" height="22px" viewBox="0 0 22 22" version="1.1">
<defs>
<radialGradient id="radial0" gradientUnits="userSpaceOnUse" cx="450.908936" cy="189.579361" fx="450.908936" fy="189.579361" r="21.166656" gradientTransform="matrix(0.000000119742,-0.0537161,-0.0966889,-0.0000000698078,30.609667,43.721789)">
<stop offset="0" style="stop-color:rgb(0%,0%,0%);stop-opacity:0.313726;"/>
<stop offset="0.222222" style="stop-color:rgb(0%,0%,0%);stop-opacity:0.27451;"/>
<stop offset="1" style="stop-color:rgb(0%,0%,0%);stop-opacity:0;"/>
</radialGradient>
<radialGradient id="radial1" gradientUnits="userSpaceOnUse" cx="450.908936" cy="189.579361" fx="450.908936" fy="189.579361" r="21.166656" gradientTransform="matrix(-0.000000119742,0.0537161,0.0966889,0.0000000698078,-8.779457,-5.175144)">
<stop offset="0" style="stop-color:rgb(0%,0%,0%);stop-opacity:0.313726;"/>
<stop offset="0.222222" style="stop-color:rgb(0%,0%,0%);stop-opacity:0.27451;"/>
<stop offset="1" style="stop-color:rgb(0%,0%,0%);stop-opacity:0;"/>
</radialGradient>
<radialGradient id="radial2" gradientUnits="userSpaceOnUse" cx="450.908936" cy="189.579361" fx="450.908936" fy="189.579361" r="21.166656" gradientTransform="matrix(-0.000000119742,-0.0537161,0.0966889,-0.0000000698078,-8.779457,43.721789)">
<stop offset="0" style="stop-color:rgb(0%,0%,0%);stop-opacity:0.313726;"/>
<stop offset="0.222222" style="stop-color:rgb(0%,0%,0%);stop-opacity:0.27451;"/>
<stop offset="1" style="stop-color:rgb(0%,0%,0%);stop-opacity:0;"/>
</radialGradient>
<radialGradient id="radial3" gradientUnits="userSpaceOnUse" cx="450.908936" cy="189.579361" fx="450.908936" fy="189.579361" r="21.166656" gradientTransform="matrix(0.000000119742,0.0537161,-0.0966889,0.0000000698078,30.609666,-5.175144)">
<stop offset="0" style="stop-color:rgb(0%,0%,0%);stop-opacity:0.313726;"/>
<stop offset="0.222222" style="stop-color:rgb(0%,0%,0%);stop-opacity:0.27451;"/>
<stop offset="1" style="stop-color:rgb(0%,0%,0%);stop-opacity:0;"/>
</radialGradient>
<linearGradient id="linear0" gradientUnits="userSpaceOnUse" x1="255.323059" y1="233.5" x2="255.323044" y2="254.666656" gradientTransform="matrix(0.00918504,0,0,0.0429729,8.569953,9.239164)">
<stop offset="0" style="stop-color:rgb(0%,0%,0%);stop-opacity:0.27451;"/>
<stop offset="1" style="stop-color:rgb(0%,0%,0%);stop-opacity:0;"/>
</linearGradient>
<linearGradient id="linear1" gradientUnits="userSpaceOnUse" x1="254" y1="-168.666672" x2="254" y2="233.5" gradientTransform="matrix(0.0429729,0,0,0.0429729,0,9.239163)">
<stop offset="0" style="stop-color:rgb(100%,54.11765%,39.607844%);stop-opacity:1;"/>
<stop offset="1" style="stop-color:rgb(100%,43.921569%,26.274511%);stop-opacity:1;"/>
</linearGradient>
<linearGradient id="linear2" gradientUnits="userSpaceOnUse" x1="344.628418" y1="123.740433" x2="163.846085" y2="-57.04192" gradientTransform="matrix(0.0212912,0.0368775,-0.0368775,0.0212912,6.717209,0.564349)">
<stop offset="0" style="stop-color:rgb(100%,65.490198%,14.901961%);stop-opacity:1;"/>
<stop offset="1" style="stop-color:rgb(100%,71.764708%,30.19608%);stop-opacity:1;"/>
</linearGradient>
<linearGradient id="linear3" gradientUnits="userSpaceOnUse" x1="254" y1="233.5" x2="254" y2="-168.666672" gradientTransform="matrix(0.0429729,0,0,0.0429729,0,9.239163)">
<stop offset="0" style="stop-color:rgb(25.882354%,25.882354%,25.882354%);stop-opacity:1;"/>
<stop offset="1" style="stop-color:rgb(38.039216%,38.039216%,38.039216%);stop-opacity:1;"/>
</linearGradient>
<linearGradient id="linear4" gradientUnits="userSpaceOnUse" x1="254" y1="233.5" x2="254" y2="-168.666672" gradientTransform="matrix(-0.0429729,0,0,0.0429729,21.830208,9.239163)">
<stop offset="0" style="stop-color:rgb(74.117649%,74.117649%,74.117649%);stop-opacity:1;"/>
<stop offset="1" style="stop-color:rgb(87.843138%,87.843138%,87.843138%);stop-opacity:1;"/>
</linearGradient>
</defs>
<g id="surface1">
<path style=" stroke:none;fill-rule:nonzero;fill:url(#radial0);" d="M 12.507812 19.273438 L 14.324219 19.273438 L 14.324219 18.363281 L 12.507812 18.363281 Z M 12.507812 19.273438 "/>
<path style=" stroke:none;fill-rule:nonzero;fill:url(#radial1);" d="M 9.324219 19.273438 L 7.503906 19.273438 L 7.503906 20.183594 L 9.324219 20.183594 Z M 9.324219 19.273438 "/>
<path style=" stroke:none;fill-rule:nonzero;fill:url(#radial2);" d="M 9.324219 19.273438 L 7.503906 19.273438 L 7.503906 18.363281 L 9.324219 18.363281 Z M 9.324219 19.273438 "/>
<path style=" stroke:none;fill-rule:nonzero;fill:url(#radial3);" d="M 12.507812 19.273438 L 14.324219 19.273438 L 14.324219 20.183594 L 12.507812 20.183594 Z M 12.507812 19.273438 "/>
<path style=" stroke:none;fill-rule:nonzero;fill:url(#linear0);" d="M 9.324219 19.046875 L 12.507812 19.046875 L 12.507812 20.183594 L 9.324219 20.183594 Z M 9.324219 19.046875 "/>
<path style=" stroke:none;fill-rule:nonzero;fill:url(#linear1);" d="M 10.914062 1.992188 C 15.6875 1.992188 19.554688 5.859375 19.554688 10.632812 C 19.554688 15.40625 15.6875 19.273438 10.914062 19.273438 C 6.144531 19.273438 2.273438 15.40625 2.273438 10.632812 C 2.273438 5.859375 6.144531 1.992188 10.914062 1.992188 Z M 10.914062 1.992188 "/>
<path style=" stroke:none;fill-rule:nonzero;fill:rgb(0%,0%,0%);fill-opacity:0.196078;" d="M 10.914062 19.273438 C 6.128906 19.273438 2.273438 15.417969 2.273438 10.632812 C 2.273438 10.605469 2.273438 10.574219 2.273438 10.546875 C 2.320312 15.296875 6.15625 19.105469 10.914062 19.105469 C 15.675781 19.105469 19.511719 15.296875 19.554688 10.546875 C 19.554688 10.574219 19.554688 10.605469 19.554688 10.632812 C 19.554688 15.417969 15.703125 19.273438 10.914062 19.273438 Z M 10.914062 19.273438 "/>
<path style=" stroke:none;fill-rule:nonzero;fill:rgb(100%,100%,100%);fill-opacity:0.392157;" d="M 10.914062 1.992188 C 6.128906 1.992188 2.273438 5.84375 2.273438 10.632812 C 2.273438 10.660156 2.273438 10.6875 2.273438 10.71875 C 2.320312 5.96875 6.15625 2.160156 10.914062 2.160156 C 15.675781 2.160156 19.511719 5.96875 19.554688 10.71875 C 19.554688 10.6875 19.554688 10.660156 19.554688 10.632812 C 19.554688 5.84375 15.703125 1.992188 10.914062 1.992188 Z M 10.914062 1.992188 "/>
<path style=" stroke:none;fill-rule:nonzero;fill:url(#linear2);" d="M 7.027344 12.875 C 6.859375 12.582031 8.539062 11.46875 8.46875 11.136719 C 8.398438 10.804688 6.410156 10.472656 6.445312 10.136719 C 6.480469 9.800781 8.496094 9.886719 8.632812 9.578125 C 8.769531 9.269531 7.355469 7.832031 7.582031 7.578125 C 7.808594 7.328125 9.386719 8.582031 9.679688 8.414062 C 9.972656 8.246094 9.675781 6.25 10.007812 6.179688 C 10.339844 6.109375 10.878906 8.050781 11.214844 8.085938 C 11.550781 8.125 12.480469 6.335938 12.792969 6.472656 C 13.101562 6.609375 12.394531 8.5 12.644531 8.726562 C 12.898438 8.953125 14.703125 8.050781 14.871094 8.34375 C 15.039062 8.640625 13.359375 9.75 13.429688 10.082031 C 13.5 10.414062 15.488281 10.746094 15.453125 11.082031 C 15.417969 11.421875 13.402344 11.332031 13.265625 11.640625 C 13.128906 11.949219 14.542969 13.390625 14.316406 13.640625 C 14.089844 13.890625 12.511719 12.636719 12.21875 12.808594 C 11.925781 12.976562 12.222656 14.96875 11.890625 15.039062 C 11.558594 15.109375 11.019531 13.167969 10.683594 13.132812 C 10.347656 13.097656 9.417969 14.886719 9.105469 14.746094 C 8.796875 14.609375 9.503906 12.722656 9.253906 12.496094 C 9 12.269531 7.195312 13.167969 7.027344 12.875 Z M 7.027344 12.875 "/>
<path style=" stroke:none;fill-rule:nonzero;fill:rgb(12.941177%,12.941177%,12.941177%);fill-opacity:1;" d="M 10.914062 1.925781 C 6.09375 1.925781 2.210938 5.808594 2.210938 10.632812 C 2.210938 15.453125 6.09375 19.335938 10.914062 19.335938 C 15.738281 19.335938 19.621094 15.453125 19.621094 10.632812 C 19.621094 5.808594 15.738281 1.925781 10.914062 1.925781 Z M 10.914062 2.054688 C 15.667969 2.054688 19.492188 5.878906 19.492188 10.632812 C 19.492188 15.382812 15.667969 19.207031 10.914062 19.207031 C 6.164062 19.207031 2.339844 15.382812 2.339844 10.632812 C 2.339844 5.878906 6.164062 2.054688 10.914062 2.054688 Z M 10.914062 2.054688 "/>
<path style=" stroke:none;fill-rule:nonzero;fill:url(#linear3);" d="M 6.355469 6.539062 C 6.109375 6.546875 5.914062 6.746094 5.914062 6.992188 L 5.914062 8.359375 L 2.101562 8.359375 C 1.917969 9.085938 1.820312 9.847656 1.820312 10.632812 C 1.820312 11.417969 1.917969 12.179688 2.101562 12.90625 L 5.914062 12.90625 L 5.914062 14.269531 C 5.914062 14.664062 6.375 14.871094 6.667969 14.609375 L 10.761719 10.972656 C 10.964844 10.789062 10.964844 10.472656 10.761719 10.292969 L 6.667969 6.65625 C 6.589844 6.582031 6.484375 6.542969 6.378906 6.539062 C 6.371094 6.539062 6.363281 6.539062 6.355469 6.539062 Z M 6.355469 6.539062 "/>
<path style=" stroke:none;fill-rule:nonzero;fill:url(#linear4);" d="M 15.476562 6.539062 C 15.46875 6.539062 15.460938 6.539062 15.453125 6.539062 C 15.34375 6.542969 15.242188 6.582031 15.164062 6.65625 L 11.070312 10.292969 C 10.867188 10.472656 10.867188 10.789062 11.070312 10.972656 L 15.164062 14.609375 C 15.453125 14.871094 15.917969 14.664062 15.917969 14.269531 L 15.917969 12.90625 L 19.726562 12.90625 C 19.914062 12.179688 20.011719 11.417969 20.011719 10.632812 C 20.011719 9.847656 19.914062 9.085938 19.726562 8.359375 L 15.917969 8.359375 L 15.917969 6.992188 C 15.917969 6.746094 15.71875 6.546875 15.476562 6.539062 Z M 15.476562 6.539062 "/>
<path style=" stroke:none;fill-rule:nonzero;fill:rgb(93.725491%,93.725491%,93.725491%);fill-opacity:0.313726;" d="M 6.355469 6.539062 C 6.109375 6.546875 5.914062 6.746094 5.914062 6.992188 L 5.914062 7.332031 C 5.914062 7.085938 6.109375 6.886719 6.355469 6.878906 C 6.363281 6.878906 6.371094 6.878906 6.378906 6.878906 C 6.484375 6.882812 6.589844 6.921875 6.667969 6.996094 L 10.761719 10.632812 C 10.816406 10.679688 10.855469 10.738281 10.878906 10.800781 C 10.949219 10.628906 10.910156 10.425781 10.761719 10.292969 L 6.667969 6.65625 C 6.589844 6.582031 6.484375 6.542969 6.378906 6.539062 C 6.371094 6.539062 6.363281 6.539062 6.355469 6.539062 Z M 2.101562 8.359375 C 1.917969 9.085938 1.820312 9.847656 1.820312 10.632812 C 1.820312 10.6875 1.820312 10.746094 1.820312 10.800781 C 1.832031 10.078125 1.929688 9.371094 2.101562 8.699219 L 5.914062 8.699219 L 5.914062 8.359375 Z M 2.101562 8.359375 "/>
<path style=" stroke:none;fill-rule:nonzero;fill:rgb(93.725491%,93.725491%,93.725491%);fill-opacity:1;" d="M 15.476562 6.539062 C 15.46875 6.539062 15.460938 6.539062 15.453125 6.539062 C 15.34375 6.542969 15.242188 6.582031 15.164062 6.65625 L 11.070312 10.292969 C 10.921875 10.425781 10.878906 10.628906 10.949219 10.800781 C 10.976562 10.738281 11.015625 10.679688 11.070312 10.632812 L 15.164062 6.996094 C 15.242188 6.921875 15.34375 6.882812 15.453125 6.878906 C 15.460938 6.878906 15.46875 6.878906 15.476562 6.878906 C 15.71875 6.886719 15.917969 7.085938 15.917969 7.332031 L 15.917969 6.992188 C 15.917969 6.746094 15.71875 6.546875 15.476562 6.539062 Z M 15.917969 8.359375 L 15.917969 8.699219 L 19.726562 8.699219 C 19.898438 9.371094 19.996094 10.078125 20.007812 10.800781 C 20.011719 10.746094 20.011719 10.6875 20.011719 10.632812 C 20.011719 9.847656 19.914062 9.085938 19.726562 8.359375 Z M 15.917969 8.359375 "/>
<path style=" stroke:none;fill-rule:nonzero;fill:rgb(0%,0%,0%);fill-opacity:0.235294;" d="M 10.851562 10.859375 C 10.828125 10.902344 10.796875 10.9375 10.761719 10.972656 L 6.667969 14.609375 C 6.375 14.871094 5.914062 14.664062 5.914062 14.269531 L 5.914062 14.726562 C 5.914062 15.117188 6.375 15.324219 6.667969 15.066406 L 10.761719 11.425781 C 10.925781 11.28125 10.957031 11.042969 10.851562 10.859375 Z M 2.574219 12.90625 C 2.617188 13.058594 2.660156 13.210938 2.710938 13.359375 L 5.914062 13.359375 L 5.914062 12.90625 Z M 2.574219 12.90625 "/>
<path style=" stroke:none;fill-rule:nonzero;fill:rgb(0%,0%,0%);fill-opacity:0.235294;" d="M 10.976562 10.859375 C 10.871094 11.042969 10.902344 11.28125 11.070312 11.425781 L 15.164062 15.066406 C 15.453125 15.324219 15.917969 15.117188 15.917969 14.726562 L 15.917969 14.269531 C 15.917969 14.664062 15.453125 14.871094 15.164062 14.609375 L 11.070312 10.972656 C 11.03125 10.9375 11 10.902344 10.976562 10.859375 Z M 15.917969 12.90625 L 15.917969 13.359375 L 19.121094 13.359375 C 19.167969 13.210938 19.214844 13.058594 19.257812 12.90625 Z M 15.917969 12.90625 "/>
<path style="fill:none;stroke-width:11.338583;stroke-linecap:round;stroke-linejoin:round;stroke:rgb(12.941177%,12.941177%,12.941177%);stroke-opacity:0.954839;stroke-miterlimit:4;" d="M 558.973135 575.120485 C 537.328816 575.807606 520.150785 593.329198 520.150785 614.973517 L 520.150785 735.219736 L 184.835616 735.219736 C 168.688266 799.122012 160.099251 866.116333 160.099251 935.172019 C 160.099251 1004.227704 168.688266 1071.222026 184.835616 1135.124302 L 520.150785 1135.124302 L 520.150785 1255.02696 C 520.150785 1289.726583 560.690939 1307.935296 586.457985 1284.916734 L 946.509519 965.061793 C 964.374672 948.914444 964.374672 921.086033 946.509519 905.282245 L 586.457985 585.427304 C 579.586773 578.899652 570.310636 575.464045 561.034499 575.120485 C 560.347378 575.120485 559.660257 575.120485 558.973135 575.120485 Z M 558.973135 575.120485 " transform="matrix(0.0113699,0,0,0.0113699,0,0)"/>
<path style="fill:none;stroke-width:3;stroke-linecap:round;stroke-linejoin:round;stroke:rgb(12.941177%,12.941177%,12.941177%);stroke-opacity:0.954839;stroke-miterlimit:4;" d="M 360.147426 -62.832713 C 365.783251 -62.650912 370.419172 -58.014991 370.419172 -52.288265 L 370.419172 -20.473122 L 459.047072 -20.473122 C 463.410292 -3.565646 465.682802 14.159935 465.682802 32.430917 C 465.682802 50.701899 463.410292 68.427479 459.047072 85.334956 L 370.419172 85.334956 L 370.419172 117.059199 C 370.419172 126.24014 359.602023 131.057862 352.875393 124.967535 L 257.611763 40.339253 C 252.884942 36.066933 252.884942 28.704 257.611763 24.522581 L 352.875393 -60.105701 C 354.693401 -61.832809 357.056812 -62.741813 359.602023 -62.832713 C 359.783824 -62.832713 359.965625 -62.832713 360.147426 -62.832713 Z M 360.147426 -62.832713 " transform="matrix(0.0429729,0,0,0.0429729,0,9.239163)"/>
</g>
</svg>
